images/art-easy.svg

<?xml version="1.0" encoding="UTF-8"?>
<svg width="380px" height="235px" viewBox="0 0 380 235" version="1.1" xmlns="http://www.w3.org/2000/svg" xmlns:xlink="http://www.w3.org/1999/xlink">
    <!-- Generator: Sketch 51.3 (57544) - http://www.bohemiancoding.com/sketch -->
    <title>art-easy</title>
    <desc>Created with Sketch.</desc>
    <defs></defs>
    <g id="Landing" stroke="none" stroke-width="1" fill="none" fill-rule="evenodd">
        <g id="landing-page-mvp" transform="translate(-212.000000, -4379.000000)">
            <g id="feature-cards-illustrated" transform="translate(0.000000, 3893.000000)">
                <g id="cards" transform="translate(157.000000, 192.000000)">
                    <g id="easy">
                        <g id="Group-4" transform="translate(55.000000, 294.000000)">
                            <rect id="Rectangle-15-Copy-2" fill="#F3F5FA" x="0" y="30" width="380" height="205" rx="20"></rect>
                            <g id="illustration-cake" transform="translate(69.000000, 42.000000)">
                                <rect id="Rectangle-16" fill="#FFFFFF" x="0" y="59" width="248" height="186" rx="20"></rect>
                                <circle id="Oval-5" fill="#92A7D7" cx="121" cy="59" r="16"></circle>
                                <path d="M245.5,97.5439331 C245.5,111.0761 234.575783,122.046025 221.1,122.046025 C207.624217,122.046025 196.7,111.0761 196.7,97.5439331 C196.7,111.0761 185.775783,122.046025 172.3,122.046025 C158.824217,122.046025 147.9,111.0761 147.9,97.5439331 C147.9,111.0761 136.975783,122.046025 123.5,122.046025 C110.024217,122.046025 99.1,111.0761 99.1,97.5439331 C99.1,111.0761 88.1757833,122.046025 74.7,122.046025 C61.2242167,122.046025 50.299816,111.0761 50.299816,97.5439331 C50.299816,111.0761 39.3757833,122.046025 25.899816,122.046025 C12.4242167,122.046025 1.5,111.0761 1.5,97.5439331" id="frosting" stroke="#1F0166" stroke-width="2"></path>
                            </g>
                        </g>
                    </g>
                </g>
            </g>
        </g>
    </g>
</svg>

<svg width="380" height="235" xmlns="http://www.w3.org/2000/svg">
  <g fill="none" fill-rule="evenodd">
    <rect fill="#F3F5FA" y="30" width="380" height="205" rx="20"/>
    <g transform="translate(69 42)">
      <rect fill="#FFF" y="59" width="248" height="186" rx="20"/>
      <circle fill="#92A7D7" cx="121" cy="59" r="16"/>
      <path d="M245.5 97.544c0 13.532-10.924 24.502-24.4 24.502-13.476 0-24.4-10.97-24.4-24.502 0 13.532-10.924 24.502-24.4 24.502-13.476 0-24.4-10.97-24.4-24.502 0 13.532-10.924 24.502-24.4 24.502-13.476 0-24.4-10.97-24.4-24.502 0 13.532-10.924 24.502-24.4 24.502-13.476 0-24.4-10.97-24.4-24.502 0 13.532-10.924 24.502-24.4 24.502-13.476 0-24.4-10.97-24.4-24.502" stroke="#1F0166" stroke-width="2"/>
    </g>
  </g>
</svg>
